src/styles/icons/Dockbar_zzalbang.svg

<svg width="24" height="24" fill="current" xmlns="http://www.w3.org/2000/svg"><path d="M19.2 5.09013V15.4601H8.4V5.09013h10.8Zm0-1.73H8.4c-.46775-.00805-.91967.16941-1.25697.49359-.33729.32417-.53253.7687-.54303 1.23641V15.4601c.0105.4677.20574.9123.54303 1.2364.3373.3242.78922.5017 1.25697.4936h10.8c.4678.0081.9197-.1694 1.257-.4936.3373-.3241.5325-.7687.543-1.2364V5.09013c-.0105-.46771-.2057-.91224-.543-1.23641-.3373-.32418-.7892-.50164-1.257-.49359Zm-7.65 8.34997 1.52 2 2.23-2.71 3 3.6h-9l2.25-2.89ZM3 6.81013V18.9101c.0105.4677.20574.9123.54303 1.2364.3373.3242.78922.5017 1.25697.4936h12.6v-1.73H4.8V6.81013H3Z"/></svg>

<svg width="24" height="24" viewBox="0 0 24 24" fill="current" xmlns="http://www.w3.org/2000/svg">
<path d="M19.2 5.09013V15.4601H8.4V5.09013H19.2ZM19.2 3.36013H8.4C7.93225 3.35208 7.48033 3.52954 7.14303 3.85372C6.80574 4.17789 6.6105 4.62242 6.6 5.09013V15.4601C6.6105 15.9278 6.80574 16.3724 7.14303 16.6965C7.48033 17.0207 7.93225 17.1982 8.4 17.1901H19.2C19.6678 17.1982 20.1197 17.0207 20.457 16.6965C20.7943 16.3724 20.9895 15.9278 21 15.4601V5.09013C20.9895 4.62242 20.7943 4.17789 20.457 3.85372C20.1197 3.52954 19.6678 3.35208 19.2 3.36013ZM11.55 11.7101L13.07 13.7101L15.3 11.0001L18.3 14.6001H9.3L11.55 11.7101ZM3 6.81013V18.9101C3.0105 19.3778 3.20574 19.8224 3.54303 20.1465C3.88033 20.4707 4.33225 20.6482 4.8 20.6401H17.4V18.9101H4.8V6.81013H3Z" fill="current"/>
</svg>
